X: 2606
T: Baltighoran, The
R: slip jig
M: 9/8
K: Dmixolydian
|:E|FAd FAd AFD|FAd FAd c2 E|FAd FAd AFD|G2 G EcB c2:|
|:D/E/|FGA AFd A2 D|FF/G/A AFd c2 E|FGA AFd A2 D|cGB AGF c2:|
|:E|D2 d dcB AFD|D2 d def g2 e|dfe dcB AF/E/D|G2 G EcB c2:|
|:A/G/|FD/E/F GEG AFD|FF/F/F GG/G/G c2 E|F2 F G2 G AFD|cGB AGF c2:|

